static/img/general/ic-linkedin.svg

<svg width="26" height="24" viewBox="0 0 26 24" fill="none" xmlns="http://www.w3.org/2000/svg">
<path d="M23.4448 0H2.96775C1.7188 0 0.706299 0.972 0.706299 2.17099V21.8289C0.706299 23.028 1.7188 24 2.96775 24H23.4448C24.6938 24 25.7063 23.028 25.7063 21.8289V2.17099C25.7063 0.972 24.6938 0 23.4448 0ZM8.44236 20.7232C8.44236 21.0721 8.14773 21.355 7.78424 21.355H4.9828C4.61932 21.355 4.32469 21.0721 4.32469 20.7232V9.4494C4.32469 9.10046 4.61932 8.81761 4.9828 8.81761H7.78424C8.14773 8.81761 8.44236 9.10046 8.44236 9.4494V20.7232ZM6.38352 7.75489C4.91369 7.75489 3.72214 6.61099 3.72214 5.19996C3.72214 3.78892 4.91369 2.64503 6.38352 2.64503C7.85335 2.64503 9.04491 3.78892 9.04491 5.19996C9.04491 6.61099 7.85342 7.75489 6.38352 7.75489ZM23.0826 20.7741C23.0826 21.0949 22.8117 21.355 22.4775 21.355H19.4714C19.1372 21.355 18.8662 21.0949 18.8662 20.7741V15.486C18.8662 14.6972 19.1073 12.0292 16.7188 12.0292C14.8661 12.0292 14.4903 13.8553 14.4149 14.6749V20.7741C14.4149 21.0949 14.144 21.355 13.8098 21.355H10.9023C10.5681 21.355 10.2972 21.0949 10.2972 20.7741V9.39851C10.2972 9.07772 10.5681 8.81761 10.9023 8.81761H13.8098C14.1439 8.81761 14.4149 9.07772 14.4149 9.39851V10.3821C15.1018 9.39236 16.1228 8.62844 18.2965 8.62844C23.1102 8.62844 23.0826 12.9457 23.0826 15.3178V20.7741Z" fill="white"/>
</svg>

<svg width="26" height="24" viewBox="0 0 26 24" fill="none" xmlns="http://www.w3.org/2000/svg"><path d="M23.445 0H2.968C1.718 0 .706.972.706 2.171v19.658C.706 23.028 1.72 24 2.968 24h20.477c1.249 0 2.261-.972 2.261-2.171V2.17C25.706.972 24.694 0 23.445 0zM8.442 20.723a.645.645 0 0 1-.658.632H4.983a.645.645 0 0 1-.658-.632V9.45c0-.349.294-.631.658-.631h2.801c.364 0 .658.282.658.631v11.274zM6.384 7.755c-1.47 0-2.662-1.144-2.662-2.555 0-1.411 1.192-2.555 2.662-2.555s2.66 1.144 2.66 2.555c0 1.411-1.19 2.555-2.66 2.555zm16.699 13.02c0 .32-.271.58-.605.58H19.47a.593.593 0 0 1-.605-.58v-5.289c0-.789.241-3.457-2.147-3.457-1.853 0-2.229 1.826-2.304 2.646v6.1c0 .32-.271.58-.605.58h-2.908a.593.593 0 0 1-.605-.58V9.398c0-.321.271-.581.605-.581h2.908c.334 0 .605.26.605.58v.984c.687-.99 1.708-1.754 3.882-1.754 4.813 0 4.786 4.318 4.786 6.69v5.456z" fill="#fff"/></svg>
